src/dsmComponents/Icons/zoom-search-20px.svg

<?xml version="1.0" encoding="UTF-8"?>
<svg width="20px" height="20px" viewBox="0 0 20 20" version="1.1" xmlns="http://www.w3.org/2000/svg" xmlns:xlink="http://www.w3.org/1999/xlink">
    <!-- Generator: Sketch 59.1 (86144) - https://sketch.com -->
    <title>zoom-search-20px</title>
    <desc>Created with Sketch.</desc>
    <defs>
        <path d="M15.875,14.0372671 C17,12.5465839 17.625,10.8074534 17.625,8.81987578 C17.625,3.97515528 13.75,0 8.875,0 C4,0 0,3.97515528 0,8.81987578 C0,13.6645963 4,17.6397516 8.875,17.6397516 C10.875,17.6397516 12.75,17.0186335 14.125,15.9006211 L17.875,19.6273292 C18.125,19.8757764 18.5,20 18.75,20 C19,20 19.375,19.8757764 19.625,19.6273292 C20.125,19.1304348 20.125,18.3850932 19.625,17.8881988 L15.875,14.0372671 Z M8.875,15.0310559 C5.375,15.0310559 2.5,12.2981366 2.5,8.81987578 C2.5,5.34161491 5.375,2.48447205 8.875,2.48447205 C12.375,2.48447205 15.25,5.34161491 15.25,8.81987578 C15.25,12.2981366 12.375,15.0310559 8.875,15.0310559 Z" id="path-1"></path>
    </defs>
    <g id="Final" stroke="none" stroke-width="1" fill="none" fill-rule="evenodd">
        <g id="All-Nucleo-Icons" transform="translate(-463.000000, -7054.000000)">
            <g id="Solo/Nucleo/20px/zoom-search" transform="translate(461.000000, 7052.000000)">
                <g transform="translate(2.000000, 2.000000)" id="zoom">
                    <g>
                        <g id="Colour/Default-Colour">
                            <mask id="mask-2" fill="white">
                                <use xlink:href="#path-1"></use>
                            </mask>
                            <g id="Mask" fill-rule="nonzero"></g>
                            <g id="colour/neutral/chia" mask="url(#mask-2)" fill="#737373">
                                <g transform="translate(-22.000000, -22.000000)" id="Colour">
                                    <rect x="0" y="0" width="64" height="64"></rect>
                                </g>
                            </g>
                        </g>
                    </g>
                </g>
            </g>
        </g>
    </g>
</svg>

<svg width="20" height="20" xmlns="http://www.w3.org/2000/svg" xmlns:xlink="http://www.w3.org/1999/xlink"><defs><path d="M15.875 14.037a8.47 8.47 0 001.75-5.217c0-4.845-3.875-8.82-8.75-8.82S0 3.975 0 8.82c0 4.845 4 8.82 8.875 8.82 2 0 3.875-.621 5.25-1.74l3.75 3.727c.25.249.625.373.875.373s.625-.124.875-.373c.5-.497.5-1.242 0-1.739l-3.75-3.85zm-7 .994c-3.5 0-6.375-2.733-6.375-6.211s2.875-6.336 6.375-6.336S15.25 5.342 15.25 8.82s-2.875 6.211-6.375 6.211z" id="zoom-search-20px_svg__a"/></defs><use fill="#737373" xlink:href="#zoom-search-20px_svg__a" fill-rule="evenodd"/></svg>
